logo/logo-hs.svg

<svg height="55" viewBox="0 0 461 92" fill="none" xmlns="http://www.w3.org/2000/svg" x="0" y="0">
<path d="M179.747 75.226H122.848V71.1718H123.185C126.578 71.1718 128.893 70.923 130.061 70.4307C131.129 69.9845 131.508 69.5761 131.508 68.1805C131.508 67.4665 130.861 65.6409 129.272 61.8842L123.859 48.8452H98.0392L96.2747 53.1726C93.8487 58.974 92.2035 63.2662 92.0544 65.365C91.9487 66.812 91.9948 68.597 93.2768 69.5734C94.6646 70.6309 96.4915 71.1664 98.706 71.1664H99.0421V75.2206H49.3938V71.1664H52.2154C55.1644 71.1664 57.2298 70.7932 58.3493 70.0575C59.4443 69.3381 60.1518 68.1967 60.4499 66.6605C60.7833 64.9377 60.9188 61.9274 60.9188 56.2613V39.344H24.159V56.2613C24.159 61.5596 24.2809 64.4725 24.5764 66.3035C24.842 67.9452 25.5196 69.1758 26.5849 69.9655C27.6663 70.7634 29.7968 71.1664 32.9166 71.1664H35.104V75.2206H2.17676V71.1664H4.36414C7.3484 71.1664 9.43007 70.7932 10.5522 70.0575C11.65 69.3381 12.3655 68.194 12.68 66.6578C13.0323 64.9377 13.176 61.9274 13.176 56.2613V21.1798C13.176 15.5326 13.0106 11.8435 12.68 10.218C12.3655 8.67098 11.7069 7.59184 10.723 7.01305C9.70383 6.41533 7.38635 6.10971 3.83559 6.10971H2.17676V3.01023H35.104V6.10971H33.4451C30.0272 6.10971 27.7666 6.39099 26.7285 6.94002C25.731 7.47013 25.048 8.48706 24.7038 9.96378C24.3433 11.5135 24.159 15.2892 24.159 21.1798V35.0355H60.9215V21.1798C60.9215 15.5299 60.7643 11.8408 60.4526 10.2153C60.1545 8.66827 59.5066 7.58913 58.5227 7.01034C57.5063 6.41263 55.1888 6.107 51.6353 6.107H49.3938V3.01023H82.6923V6.10971H81.2991C77.8459 6.10971 75.5691 6.39099 74.531 6.94002C73.5335 7.47013 72.8505 8.48706 72.5062 9.96378C72.143 11.5135 71.9587 15.2865 71.9587 21.1798V56.2667C71.9587 61.565 72.0726 64.4779 72.3517 66.3116C72.6011 67.9506 73.276 69.1812 74.3602 69.9682C74.7316 70.2387 75.2493 70.4713 75.8971 70.6552C77.4448 70.9744 79.1795 70.8581 80.7299 70.2793C80.8465 70.2306 80.9684 70.1792 81.0904 70.1251C81.272 70.0467 81.4536 69.9628 81.6325 69.8709C81.7707 69.7979 81.909 69.7275 82.0418 69.6545C82.3128 69.5004 82.6354 69.3083 82.9525 69.0784C83.4377 68.7241 83.8605 68.3428 84.2265 67.9317C85.495 66.5063 87.4492 63.9261 89.7694 57.9922C89.9456 57.4648 90.7777 55.4526 92.3119 51.8636L113.232 2.00952H115.741L139.781 59.0389L143.058 66.528C143.752 68.1129 144.698 69.3868 145.869 70.3117C147.761 71.6262 149.967 72.1509 152.293 71.8452C153.306 71.664 154.109 71.3855 154.662 71.023C155.759 70.3036 156.467 69.1596 156.762 67.6261C157.074 66.0195 157.231 62.1979 157.231 56.2667V21.1798C157.231 15.5299 157.074 11.8408 156.762 10.2153C156.467 8.66827 155.808 7.59184 154.808 7.01305C153.773 6.41263 151.444 6.10971 147.891 6.10971H146.232V3.02375L155.545 2.69649C162.725 2.45037 168.388 2.32867 172.372 2.32867C179.774 2.32867 185.559 2.91827 189.573 4.08396C193.617 5.25776 196.981 7.37006 199.569 10.3587C202.169 13.3635 203.486 17.1986 203.486 21.764C203.486 25.71 202.589 29.2476 200.822 32.2741C199.049 35.3087 196.474 37.6455 193.167 39.2141C189.879 40.7747 184.038 41.5671 175.812 41.5671H168.268V56.2694C168.268 61.565 168.382 64.4752 168.661 66.3143C168.911 67.9533 169.586 69.1839 170.67 69.971C171.77 70.7688 173.909 71.1745 177.029 71.1745H179.745L179.747 75.226ZM99.8688 44.5016H122.209L111.028 17.8666L99.8688 44.5016ZM168.271 37.2966H173.063C177.132 37.2966 180.46 36.8855 182.954 36.0741C185.651 35.1951 187.54 34.4351 189.118 31.9739C190.766 29.4045 191.603 26.1833 191.603 22.3942C191.603 16.609 190.172 12.3141 187.345 9.63111C184.515 6.94543 179.834 5.58231 173.432 5.58231C171.247 5.58231 169.515 5.64181 168.271 5.76082V37.2966Z" fill="black"/>
<path d="M238.481 75.226H204.974V71.1718H207.213C210.197 71.1718 212.279 70.7985 213.398 70.0629C214.496 69.3434 215.203 68.2021 215.499 66.6659C215.832 64.943 215.97 61.9328 215.97 56.2667V21.1797C215.97 15.5298 215.81 11.8407 215.499 10.2153C215.201 8.66822 214.547 7.59178 213.545 7.013C212.509 6.41257 210.181 6.10966 206.627 6.10966H204.971V3.0237L214.282 2.69644C221.462 2.45032 227.124 2.32861 231.109 2.32861C238.508 2.32861 244.295 2.91822 248.307 4.08391C252.351 5.25771 255.715 7.37001 258.303 10.3586C260.902 13.3634 262.22 17.1986 262.22 21.7639C262.22 25.71 261.325 29.2476 259.555 32.2741C257.785 35.3086 255.21 37.6427 251.901 39.2141C248.61 40.7746 242.772 41.5671 234.543 41.5671H227.005V56.2694C227.005 61.5704 227.119 64.4805 227.398 66.3143C227.647 67.9533 228.322 69.1839 229.406 69.9709C230.507 70.7688 232.645 71.1745 235.765 71.1745H238.481V75.226ZM227.005 37.2965H231.797C235.868 37.2965 239.197 36.8854 241.688 36.074C244.39 35.195 246.277 34.435 247.854 31.9738C249.505 29.4045 250.342 26.1806 250.342 22.3941C250.342 16.609 248.908 12.314 246.084 9.63106C243.254 6.94538 238.571 5.58226 232.171 5.58226C229.986 5.58226 228.252 5.64176 227.008 5.76076L227.005 37.2965Z" fill="black"/>
<path d="M312.952 75.226H281.719V71.1718H283.218C286.202 71.1718 288.284 70.7986 289.403 70.0629C290.501 69.3435 291.208 68.1995 291.504 66.666C291.837 64.9485 291.973 61.9356 291.973 56.2667V47.5498L274.151 18.3481C270.552 12.4926 268.131 8.95499 266.96 7.83798C265.83 6.76155 263.735 6.18006 260.734 6.11244L260.406 6.10433V3.01025H290.159V6.10974H289.823C286.308 6.10974 282.115 6.72909 282.115 9.67712C282.115 10.5886 282.925 12.3439 284.663 15.2026L300.814 41.7078L314.646 18.4969C316.839 14.851 318.021 12.2249 318.373 10.2316C318.593 8.97392 318.693 8.40054 317.43 7.6162C316.321 6.92923 314.248 6.10974 310.656 6.10974H310.32V3.01025H334.417V6.06376L334.127 6.10433C330.972 6.55059 328.394 7.73521 326.464 9.62573C324.502 11.5514 321.946 15.108 318.877 20.1926L302.85 46.8628V56.2667C302.85 61.9653 303.015 65.1378 303.398 66.8688C303.745 68.4348 304.49 69.5491 305.615 70.1846C306.775 70.8392 309.13 71.1718 312.616 71.1718H312.952V75.226Z" fill="black"/>
<path d="M372.437 75.4532H355.889L356.548 73.4437H357.572C358.695 73.4437 359.654 73.2409 360.429 72.8352C361.194 72.4349 361.714 71.9751 361.982 71.4666C362.281 70.9014 362.6 69.9088 363.126 68.1589L370.472 43.931C371.06 42.027 371.325 41.1074 371.325 40.6801C371.325 39.463 370.206 38.8707 367.91 38.8707H366.615L367.135 36.9558H382.574L382.054 38.8707H381.105C380.238 38.8707 379.441 39.0248 378.739 39.3305C378.058 39.628 377.568 40.0391 377.28 40.5584C377.072 40.9397 376.595 41.9756 375.779 44.6721L368.658 68.002C368.192 69.5301 367.973 70.4876 367.973 71.015C367.973 71.8561 368.33 72.4511 369.057 72.8352C369.821 73.2382 370.707 73.4437 371.7 73.4437H373.093L372.437 75.4532Z" fill="black"/>
<path d="M408.668 88.8761C406.592 88.8761 404.822 88.1702 403.396 86.7773C402.003 85.4142 400.531 83.237 399.024 80.3079C397.002 76.424 395.319 73.9628 394.018 72.9946C392.717 72.0372 391.47 71.5503 390.321 71.5503C387.597 71.5503 385.873 72.643 385.035 74.8905C384.531 76.232 383.859 76.9136 383.032 76.9136C382.225 76.9136 381.777 76.4403 381.777 75.5748C381.777 74.2144 382.569 72.6268 384.192 70.7065C386.261 68.2696 389.706 65.1161 394.438 61.3296C401.681 55.5553 406.711 51.3794 409.395 48.929C411.815 46.7139 413.745 44.7558 415.138 43.1005C414.19 43.3331 413.536 43.3331 412.436 43.3331H412.352C410.701 43.3331 408.693 43.0978 406.372 42.6299C404.125 42.1593 402.225 41.9213 400.724 41.9213C397.585 41.9213 395.617 43.0897 394.704 45.4887L394.65 45.6375L392.72 45.5022L392.823 45.2372C393.918 42.4055 395.441 40.185 397.346 38.6325C399.266 37.0747 401.228 36.2822 403.182 36.2822C405.071 36.2822 407.535 37.2559 410.501 39.1816C412.612 40.5555 414.135 41.2506 415.024 41.2506C416.396 41.2506 417.35 40.3364 417.946 38.454C418.413 36.9935 419.025 36.2822 419.808 36.2822C420.654 36.2822 421.118 36.7961 421.118 37.7319C421.118 38.1809 420.893 38.8489 420.435 39.7766C419.987 40.688 418.83 42.2297 416.903 44.4961C415.016 46.7166 412.964 48.8181 410.807 50.7357C407.89 53.3267 403.922 56.6182 399.005 60.5101C393.273 65.0755 389.792 68.056 387.968 69.9627C389.163 69.5084 390.202 69.411 391.603 69.411C393.053 69.411 394.479 69.7437 395.834 70.4036C397.181 71.0554 398.377 71.9263 399.388 72.9865C400.385 74.0386 401.743 75.756 403.423 78.0901C406.172 81.8522 408.487 83.5318 410.937 83.5318C413.582 83.5318 415.163 82.074 415.764 79.0692L415.8 78.8988H417.689L417.648 79.1476C417.155 82.2119 416.122 84.6163 414.569 86.304C413.035 87.9862 410.994 88.8761 408.668 88.8761Z" fill="black"/>
<path d="M450.074 75.4532H417.564L418.201 73.4302H419.174C420.296 73.4302 421.25 73.2246 422.017 72.8243C422.774 72.424 423.297 71.9615 423.576 71.4504C423.871 70.9095 424.186 70.0169 424.741 68.1616L432.114 43.9337C432.615 42.2703 432.924 41.1425 432.924 40.653C432.924 39.4549 431.808 38.8734 429.509 38.8734H428.1L428.639 36.9585H456.349L456.498 45.9784H454.801L454.763 45.8161C454.234 43.7038 453.695 42.4759 452.776 41.2832C451.958 40.223 450.814 39.4008 449.868 39.1898C448.919 38.9788 446.949 38.8734 444.021 38.8734H439.226L434.529 54.2355H436.996C439.573 54.2355 441.547 53.8785 442.858 53.1672C444.252 52.418 445.355 50.963 446.444 48.4585L446.499 48.3287H448.396L443.737 63.6936H441.85L441.902 63.4393C442.105 62.463 442.208 61.5163 442.208 60.6184C442.208 59.1282 442.021 58.0923 441.663 57.5298C441.305 56.9726 440.847 56.6318 440.256 56.4858C439.644 56.3289 438.503 56.2532 436.874 56.2532H433.911L430.385 67.9209C429.832 69.787 429.767 70.4821 429.767 70.8473C429.767 71.7939 430.171 72.4619 430.959 72.8324C431.8 73.23 433.296 73.4302 435.413 73.4302H437.635C441.387 73.4302 444.349 72.7405 446.431 71.3828C448.564 69.9899 450.028 68.2346 451.318 65.5192L451.378 65.4029H453.164L450.074 75.4532Z" fill="black"/>
<path d="M337.642 76.1319C334.216 76.1319 331.245 74.4984 328.809 71.2799C328.052 72.3401 327.486 73.5382 327.131 74.8473L327.088 75.0068H325.084L326.51 62.2816H328.253L328.261 62.4845C328.437 66.4819 329.345 69.1189 331.205 71.0338C332.967 72.8431 335.018 73.7573 337.314 73.7573C339.255 73.7573 340.963 73.1055 342.388 71.8073C343.746 70.5767 344.408 68.9864 344.408 66.9552C344.408 65.5596 344.093 64.7564 343.44 63.5934C342.795 62.4439 341.624 61.0781 339.965 59.5338C337.241 56.9644 335.371 54.8629 334.398 53.2834C333.417 51.685 332.918 49.7972 332.918 47.6713C332.918 44.7936 334.037 42.1296 336.246 39.7495C338.38 37.4506 340.865 36.2822 343.635 36.2822C346.779 36.2822 349.186 37.832 350.799 40.8855C351.455 39.7712 351.965 38.5054 352.317 37.118L352.358 36.9557H354.033L352.482 48.5557H350.707V48.3448C350.691 45.8701 350.392 44.3068 349.644 42.7706C348.961 41.3588 348.075 40.2715 347.015 39.5413C345.961 38.8137 344.774 38.4432 343.492 38.4432C341.602 38.4432 340.065 39.1762 338.935 40.6204C337.924 41.9105 337.488 43.4116 337.488 45.6402C337.488 47.098 338.277 48.3583 339.155 49.6322C339.971 50.8168 341.049 51.9581 343.275 53.9947C345.947 56.4559 347.649 58.5087 348.332 60.1044C348.972 61.592 349.281 63.1823 349.281 64.9646C349.281 68.0749 348.026 70.7714 345.546 72.9811C343.215 75.069 340.551 76.1319 337.642 76.1319Z" fill="black"/>
</svg>

<svg xmlns="http://www.w3.org/2000/svg" height="55" fill="none" viewBox="0 0 461 92"><path fill="#000" d="M179.747 75.226h-56.899v-4.054h.337c3.393 0 5.708-.249 6.876-.741 1.068-.447 1.447-.855 1.447-2.25 0-.715-.647-2.54-2.236-6.297l-5.413-13.039h-25.82l-1.764 4.328c-2.426 5.801-4.072 10.093-4.22 12.192-.106 1.447-.06 3.232 1.222 4.208 1.388 1.058 3.215 1.593 5.429 1.593h.336v4.055H49.394v-4.055h2.821c2.95 0 5.015-.373 6.134-1.108 1.095-.72 1.803-1.861 2.1-3.398.334-1.722.47-4.733.47-10.399V39.344h-36.76v16.917c0 5.299.122 8.211.417 10.042.266 1.642.944 2.873 2.009 3.663 1.081.797 3.212 1.2 6.332 1.2h2.187v4.055H2.177v-4.055h2.187c2.984 0 5.066-.373 6.188-1.108 1.098-.72 1.814-1.864 2.128-3.4.352-1.72.496-4.73.496-10.397V21.18c0-5.647-.165-9.336-.496-10.962-.314-1.547-.973-2.626-1.957-3.205-1.02-.598-3.337-.903-6.887-.903h-1.66v-3.1h32.928v3.1h-1.659c-3.418 0-5.678.281-6.716.83-.998.53-1.681 1.547-2.025 3.024-.36 1.55-.545 5.325-.545 11.216v13.856h36.763V21.18c0-5.65-.158-9.34-.47-10.965-.297-1.547-.945-2.626-1.93-3.205-1.016-.597-3.333-.903-6.887-.903h-2.241V3.01h33.298v3.1H81.3c-3.453 0-5.73.281-6.768.83-.998.53-1.68 1.547-2.025 3.024-.363 1.55-.547 5.323-.547 11.216v35.087c0 5.298.114 8.21.393 10.045.25 1.639.924 2.87 2.008 3.656.372.27.89.503 1.537.687a8.917 8.917 0 0 0 4.833-.376c.117-.048.238-.1.36-.154a8.94 8.94 0 0 0 .542-.254c.139-.073.277-.143.41-.216.27-.155.593-.347.91-.577a8.049 8.049 0 0 0 1.275-1.146c1.268-1.426 3.222-4.006 5.542-9.94.177-.527 1.009-2.54 2.543-6.128l20.92-49.854h2.509l24.04 57.029 3.277 7.489c.694 1.585 1.64 2.859 2.811 3.784 1.892 1.314 4.098 1.839 6.424 1.533 1.013-.181 1.816-.46 2.369-.822 1.097-.72 1.805-1.863 2.1-3.397.312-1.607.469-5.428.469-11.36V21.18c0-5.65-.157-9.34-.469-10.965-.295-1.547-.954-2.623-1.954-3.202-1.035-.6-3.364-.903-6.917-.903h-1.659V3.024l9.313-.328c7.18-.246 12.843-.367 16.827-.367 7.402 0 13.187.59 17.201 1.755 4.044 1.174 7.408 3.286 9.996 6.275 2.6 3.005 3.917 6.84 3.917 11.405 0 3.946-.897 7.484-2.664 10.51-1.773 3.035-4.348 5.371-7.655 6.94-3.288 1.56-9.129 2.353-17.355 2.353h-7.544V56.27c0 5.296.114 8.206.393 10.045.25 1.64.925 2.87 2.009 3.657 1.1.798 3.239 1.203 6.359 1.203h2.716zM99.869 44.502h22.34l-11.181-26.635zm68.402-7.205h4.792c4.069 0 7.397-.411 9.891-1.223 2.697-.879 4.586-1.639 6.164-4.1 1.648-2.57 2.485-5.79 2.485-9.58 0-5.785-1.431-10.08-4.258-12.763-2.83-2.686-7.511-4.049-13.913-4.049-2.185 0-3.917.06-5.161.179zm70.21 37.929h-33.507v-4.054h2.239c2.984 0 5.066-.373 6.185-1.11 1.098-.719 1.805-1.86 2.101-3.396.333-1.723.471-4.733.471-10.4V21.18c0-5.65-.16-9.34-.471-10.965-.298-1.547-.952-2.623-1.954-3.202-1.036-.6-3.364-.903-6.918-.903h-1.656V3.024l9.311-.328c7.18-.246 12.842-.367 16.827-.367 7.399 0 13.186.59 17.198 1.755 4.044 1.174 7.408 3.286 9.996 6.275 2.599 3.004 3.917 6.84 3.917 11.405 0 3.946-.895 7.484-2.665 10.51-1.77 3.035-4.345 5.369-7.654 6.94-3.291 1.56-9.129 2.353-17.358 2.353h-7.538V56.27c0 5.301.114 8.212.393 10.045.249 1.64.924 2.87 2.008 3.657 1.101.798 3.239 1.203 6.359 1.203h2.716zm-11.476-37.93h4.792c4.071 0 7.4-.41 9.891-1.222 2.702-.879 4.589-1.639 6.166-4.1 1.651-2.57 2.488-5.793 2.488-9.58 0-5.785-1.434-10.08-4.258-12.763-2.83-2.686-7.513-4.049-13.913-4.049-2.185 0-3.919.06-5.163.179zm85.947 37.93h-31.233v-4.054h1.499c2.984 0 5.066-.373 6.185-1.11 1.098-.718 1.805-1.862 2.101-3.396.333-1.718.469-4.73.469-10.4V47.55l-17.822-29.202c-3.599-5.855-6.02-9.393-7.191-10.51-1.13-1.076-3.225-1.658-6.226-1.726l-.328-.008V3.01h29.753v3.1h-.336c-3.515 0-7.708.62-7.708 3.567 0 .912.81 2.667 2.548 5.526l16.151 26.505 13.832-23.211c2.193-3.646 3.375-6.272 3.727-8.265.22-1.258.32-1.831-.943-2.616-1.109-.687-3.182-1.506-6.774-1.506h-.336v-3.1h24.097v3.054l-.29.04c-3.155.447-5.733 1.631-7.663 3.522-1.962 1.925-4.518 5.482-7.587 10.567l-16.027 26.67v9.404c0 5.698.165 8.87.548 10.602.347 1.566 1.092 2.68 2.217 3.316 1.16.654 3.515.987 7.001.987h.336zm59.485.227h-16.548l.659-2.01h1.024c1.123 0 2.082-.202 2.857-.608.765-.4 1.285-.86 1.553-1.368.299-.566.618-1.558 1.144-3.308l7.346-24.228c.588-1.904.853-2.824.853-3.25 0-1.218-1.119-1.81-3.415-1.81h-1.295l.52-1.915h15.439l-.52 1.915h-.949c-.867 0-1.664.154-2.366.46-.681.297-1.171.708-1.459 1.227-.208.382-.685 1.418-1.501 4.114l-7.121 23.33c-.466 1.528-.685 2.486-.685 3.013 0 .841.357 1.436 1.084 1.82.764.403 1.65.609 2.643.609h1.393zm36.231 13.423c-2.076 0-3.846-.706-5.272-2.099-1.393-1.363-2.865-3.54-4.372-6.47-2.022-3.883-3.705-6.344-5.006-7.312-1.301-.958-2.548-1.445-3.697-1.445-2.724 0-4.448 1.093-5.286 3.34-.504 1.342-1.176 2.024-2.003 2.024-.807 0-1.255-.474-1.255-1.34 0-1.36.792-2.947 2.415-4.867 2.069-2.437 5.514-5.59 10.246-9.377 7.243-5.775 12.273-9.95 14.957-12.401 2.42-2.215 4.35-4.173 5.743-5.829-.948.233-1.602.233-2.702.233h-.084c-1.651 0-3.659-.235-5.98-.703-2.247-.47-4.147-.709-5.648-.709-3.139 0-5.107 1.169-6.02 3.568l-.054.149-1.93-.136.103-.265c1.095-2.831 2.618-5.052 4.523-6.605 1.92-1.557 3.882-2.35 5.836-2.35 1.889 0 4.353.974 7.319 2.9 2.111 1.374 3.634 2.069 4.523 2.069 1.372 0 2.326-.915 2.922-2.797.467-1.46 1.079-2.172 1.862-2.172.846 0 1.31.514 1.31 1.45 0 .449-.225 1.117-.683 2.045-.448.911-1.605 2.453-3.532 4.72a62.735 62.735 0 0 1-6.096 6.239c-2.917 2.59-6.885 5.882-11.802 9.774-5.732 4.566-9.213 7.546-11.037 9.453 1.195-.455 2.234-.552 3.635-.552 1.45 0 2.876.333 4.231.993a12.287 12.287 0 0 1 3.554 2.583c.997 1.052 2.355 2.769 4.035 5.103 2.749 3.762 5.064 5.442 7.514 5.442 2.645 0 4.226-1.458 4.827-4.463l.036-.17h1.889l-.041.249c-.493 3.064-1.526 5.468-3.079 7.156-1.534 1.682-3.575 2.572-5.901 2.572"/><path fill="#000" d="M450.074 75.453h-32.51l.637-2.023h.973c1.122 0 2.076-.205 2.843-.606.757-.4 1.28-.862 1.559-1.374.295-.54.61-1.433 1.165-3.288l7.373-24.228c.501-1.664.81-2.791.81-3.281 0-1.198-1.116-1.78-3.415-1.78H428.1l.539-1.914h27.71l.149 9.02h-1.697l-.038-.163c-.529-2.112-1.068-3.34-1.987-4.533-.818-1.06-1.962-1.882-2.908-2.093-.949-.211-2.919-.317-5.847-.317h-4.795l-4.697 15.363h2.467c2.577 0 4.551-.357 5.862-1.069 1.394-.749 2.497-2.204 3.586-4.709l.055-.13h1.897l-4.659 15.366h-1.887l.052-.255c.203-.976.306-1.923.306-2.82 0-1.49-.187-2.527-.545-3.09-.358-.556-.816-.897-1.407-1.043-.612-.157-1.753-.233-3.382-.233h-2.963l-3.526 11.668c-.553 1.866-.618 2.561-.618 2.926 0 .947.404 1.615 1.192 1.985.841.398 2.337.598 4.454.598h2.222c3.752 0 6.714-.69 8.796-2.047 2.133-1.393 3.597-3.148 4.887-5.864l.06-.116h1.786zm-112.432.679c-3.426 0-6.397-1.634-8.833-4.852a11.116 11.116 0 0 0-1.678 3.567l-.043.16h-2.004l1.426-12.725h1.743l.008.203c.176 3.997 1.084 6.634 2.944 8.549 1.762 1.81 3.813 2.723 6.109 2.723 1.941 0 3.649-.651 5.074-1.95 1.358-1.23 2.02-2.82 2.02-4.852 0-1.395-.315-2.199-.968-3.362-.645-1.15-1.816-2.515-3.475-4.06-2.724-2.569-4.594-4.67-5.567-6.25-.981-1.598-1.48-3.486-1.48-5.612 0-2.877 1.119-5.541 3.328-7.922 2.134-2.298 4.619-3.467 7.389-3.467 3.144 0 5.551 1.55 7.164 4.604.656-1.115 1.166-2.38 1.518-3.768l.041-.162h1.675l-1.551 11.6h-1.775v-.211c-.016-2.475-.315-4.038-1.063-5.574-.683-1.412-1.569-2.5-2.629-3.23a6.096 6.096 0 0 0-3.523-1.098c-1.89 0-3.427.733-4.557 2.177-1.011 1.29-1.447 2.792-1.447 5.02 0 1.458.789 2.718 1.667 3.992.816 1.185 1.894 2.326 4.12 4.363 2.672 2.46 4.374 4.514 5.057 6.11.64 1.487.949 3.077.949 4.86 0 3.11-1.255 5.806-3.735 8.016-2.331 2.088-4.995 3.15-7.904 3.15"/></svg>
